tools/download-figma-icons/icons/outlined-large/eye-closed.svg

<svg width="64" height="64" viewBox="0 0 64 64" fill="none" xmlns="http://www.w3.org/2000/svg">
<path fill-rule="evenodd" clip-rule="evenodd" d="M32.5715 18C43.9255 18 53.7195 29.28 56.3145 32.542C53.7235 35.807 43.9455 47.083 32.5715 47.083C21.2175 47.083 11.4235 35.805 8.82846 32.541C11.4235 29.278 21.2175 18 32.5715 18ZM5.48046 44.551C6.08846 45.113 7.03646 45.079 7.60046 44.47L11.6635 40.086C13.6515 41.976 16.0655 43.981 18.8105 45.698L16.2135 51.065C15.8525 51.812 16.1645 52.708 16.9105 53.069C17.6525 53.431 18.5515 53.118 18.9145 52.372L21.4275 47.179C24.2755 48.633 27.4005 49.691 30.7085 49.989V55.634C30.7085 56.462 31.3805 57.134 32.2085 57.134C33.0365 57.134 33.7085 56.462 33.7085 55.634V50.046C37.0575 49.86 40.2305 48.878 43.1315 47.471L45.5035 52.372C45.8655 53.118 46.7645 53.43 47.5075 53.069C48.2535 52.708 48.5645 51.812 48.2045 51.065L45.7695 46.036C48.5655 44.356 51.0445 42.36 53.0925 40.452L56.8165 44.47C57.3815 45.079 58.3295 45.113 58.9365 44.551C59.5445 43.987 59.5805 43.038 59.0175 42.431L55.2315 38.346C57.7455 35.73 59.2555 33.65 59.4245 33.414C59.7985 32.892 59.7985 32.19 59.4245 31.668C58.9375 30.987 47.3295 15 32.5715 15C17.8125 15 6.20446 30.987 5.71746 31.668C5.34346 32.19 5.34346 32.892 5.71746 33.414C5.87846 33.639 7.25246 35.529 9.54446 37.959L5.39946 42.431C4.83746 43.038 4.87346 43.987 5.48046 44.551Z" fill="black"/>
</svg>

<svg xmlns="http://www.w3.org/2000/svg" width="64" height="64" fill="none" viewBox="0 0 64 64"><path fill="currentColor" fill-rule="evenodd" d="M32.572 18c11.353 0 21.147 11.28 23.743 14.542-2.591 3.265-12.37 14.541-23.743 14.541-11.355 0-21.149-11.278-23.744-14.542C11.424 29.278 21.218 18 32.572 18M5.48 44.551a1.5 1.5 0 0 0 2.12-.081l4.064-4.384c1.988 1.89 4.402 3.895 7.147 5.612l-2.597 5.367a1.5 1.5 0 1 0 2.7 1.307l2.513-5.193c2.849 1.454 5.974 2.512 9.282 2.81v5.645a1.5 1.5 0 0 0 3 0v-5.588c3.348-.186 6.521-1.168 9.423-2.575l2.372 4.901a1.501 1.501 0 0 0 2.7-1.307l-2.434-5.029c2.795-1.68 5.274-3.676 7.322-5.584l3.724 4.018a1.5 1.5 0 1 0 2.201-2.039l-3.786-4.085c2.514-2.616 4.024-4.696 4.194-4.932a1.5 1.5 0 0 0 0-1.746C58.938 30.987 47.33 15 32.572 15 17.812 15 6.204 30.987 5.717 31.668a1.5 1.5 0 0 0 0 1.746c.161.225 1.535 2.115 3.827 4.545L5.4 42.431a1.5 1.5 0 0 0 .081 2.12" clip-rule="evenodd"/></svg>
